X: 1
T: CAT IN THE HOPPER -- JIG
B: Ryan's Mammoth Collection of Fiddle Tunes
R: jig
M: 6/8
L: 1/8
Z: Contributed 20010707132603 by John Chambers jmchambers:rcn.net
K: Gdor
 vDGA B2c | AFF F2A | G2G    g2e | fdd d2e \
| fag fed | dcA B2c | d"4"ed d2c | dBG G2z :|
|: ug \
| gdg gab | agf f2a | gag    gfe | fdd d2e \
| fag fed | dcA B2c | d"4"ed B2c | dBG G2z :|
